X:13
T:Wind Forest Fire Mountain (Furinkazan)
M:4/4
L:1/8
Q:1/4=141
K:E
|: E,2 G,B, E2 GB | B,,2 D#F B2 D#F | C#2 EG c2 eg | G#2 B,D# G#2 B,D# :|
| e B G E B, G, E, B,, | d# B F# D# B, F#, D#, B,, | c# G# E C# G#, E, C#, G,, | b g# e c# G# E C# G#, |
